status/22/fcitx-pinyin-libpinyin.svg

<svg xmlns="http://www.w3.org/2000/svg" viewBox="0 0 22 22">
  <defs id="defs3051">
    <style type="text/css" id="current-color-scheme">
      .ColorScheme-Text {
        color:#eff0f1;
      }
      </style>
  </defs>
    <path
       style="fill:currentColor;fill-opacity:1;stroke:none" 
       d="M 3 3 L 3 19 L 19 19 L 19 3 L 3 3 z M 10.900391 4.7011719 L 12.400391 6.7011719 L 12.001953 7 L 13.998047 7 L 13.599609 6.7011719 L 15.099609 4.7011719 L 15.900391 5.3007812 L 14.625 7 L 17 7 L 17 8 L 15 8 L 15 11 L 17 11 L 17 12 L 15 12 L 15 17 L 14 17 L 14 12 L 11.958984 12 C 11.862844 13.118701 11.481893 14.02943 11.033203 14.806641 C 10.412486 15.881641 9.3417969 16.865234 9.3417969 16.865234 L 8.6582031 16.136719 C 8.6582031 16.136719 9.6706537 15.167941 10.167969 14.306641 C 10.569285 13.61152 10.872261 12.895032 10.960938 12 L 9 12 L 9 11.058594 L 8 11.558594 L 8 17 L 5 17 L 5 16 L 7 16 L 7 12.058594 L 5.2226562 12.947266 L 4.7773438 12.052734 L 7 10.941406 L 7 8 L 5 8 L 5 7 L 7 7 L 7 5 L 8 5 L 8 7 L 9 7 L 9 8 L 8 8 L 8 10.441406 L 8.7773438 10.052734 L 9.2226562 10.947266 L 9.1171875 11 L 11 11 L 11 8 L 10 8 L 10 7 L 11.375 7 L 10.099609 5.3007812 L 10.900391 4.7011719 z M 12 8 L 12 11 L 14 11 L 14 8 L 12 8 z "
       class="ColorScheme-Text"
        />
</svg>

<svg xmlns="http://www.w3.org/2000/svg" viewBox="0 0 22 22">
 <defs>
  <style id="current-color-scheme" type="text/css">.ColorScheme-Text {
                color:#f2f2f2;
            }</style>
 </defs>
<path class="ColorScheme-Text" d="M6 3C4.338 3 3 4.338 3 6v10c0 1.662 1.338 3 3 3h10c1.662 0 3-1.338 3-3V6c0-1.662-1.338-3-3-3zm4.9 1.701 1.5 2-.398.299h1.996l-.398-.299 1.5-2 .8.6L14.625 7H17v1h-2v3h2v1h-2v5h-1v-5h-2.041c-.096 1.119-.477 2.03-.926 2.807-.62 1.075-1.691 2.058-1.691 2.058l-.684-.728s1.013-.97 1.51-1.83c.401-.695.704-1.412.793-2.307H9v-.941l-1 .5V17H5v-1h2v-3.941l-1.777.888-.446-.894L7 10.94V8H5V7h2V5h1v2h1v1H8v2.441l.777-.388.446.894-.106.053H11V8h-1V7h1.375L10.1 5.3zM12 8v3h2V8z" style="fill:currentColor;fill-opacity:1;stroke:none"/></svg>
